X:103
T:High Germany - singer at Watford
%%VWML:SBG-1-2-138-0
F:http://www.vwml.org/record/SBG/1/2/138
Z:Original Sibelius transcriptions by M. & S. Graebe
M:3/4
I:linebreak $
K:G
V:1 treble nm="P1"
V:1
 GB | d2 (de) dc | Bd G2 GG | AB c2 B2 | G4 D2 | G3 A Bc | dB G2 GG |$ AB c2 B2 | G4 GB | %9
w: As _|I was _ a _|walk- * ing & a|talk- * ing a-|long I|heard 2 lo- vers|talk- * ing and a|sing- ing of a|song Said the|
 d2 d2 e>d | dB G4 | G2 !fermata!g2 fd | e4 d3/2 d/ | g2 g2 f>e |$ dB G2 GA | Bc A2 A>F |"^*" G4 | %17
w: young one to the|fair _ one|Dear- est this _|way For the|King he has com-|mand- ed us & his|or- ders we must o-|bey|
 GG | A>G A2 B2 | c4 BA | B>A B2 c2 | d4 BA |$ G2 !fermata!g2 fd | e4 dd | g2 g2 gg fe | dB G2 GA | %26
w: O No|do not me for-|sake, but _|pi- ty on me|take For _|great I my _|woe And thro'|France Scotland _ and bonny _|Ire- * land with _|
 Bc A2 F2 | E4 x2 | %28
w: thee my love I'll|go|
T:High Germany - singer at Watford 2nd part
F:http://www.vwml.org/record/SBG/1/2/138
Z:Original Sibelius transcriptions by M. & S. Graebe
M:3/4
I:linebreak $
K:G
V:1 treble nm="P1"
V:1
 G2 | A>G A2 B2 | c4 A2 | B>A B2 c2 | d6 | G2 !fermata!g2 fd |$ e4 dd | g2 g g f e | dB G2 GA | %9
w: and|o 'twill ne- ver|'ild to|lie in th' open|field,|all the night _|long. And your|par- ents they will be|an- ger- y, If a|
 Bc A2 F2 | E4 z2 | %11
w: long with you I|go|
T:High Germany - Kidson
F:http://www.vwml.org/record/SBG/1/2/138
Z:Original Sibelius transcriptions by M. & S. Graebe
M:6/8
I:linebreak $
K:Bb
V:1 treble nm="P1"
V:1
 F | B,2 B, B,2 D | F3 B,2 B, | C2 B, B,2 B, | (B,3 B,2) F | B2 B G2 B |$ A3 F2 D | C2 C C2 =F | %8
 (F3 F2) F | B2 B G2 B | (A F3) D |$ C2 C !fermata!B2 G | F3 F2 D | B,2 B, C2 D | F3 D2 B, | %15
 C3 B,2 B, | B,3 B,2 x | %17
T:High Germany - Ford
F:http://www.vwml.org/record/SBG/1/2/138
Z:Original Sibelius transcriptions by M. & S. Graebe
M:3/4
I:linebreak $
K:Bb
V:1 treble nm="P1"
V:1
 GA | BA Bc d B | c>B cd _ec | d2 z2 ba |$ g3 ba | ge d2 GA | BA B2 ba | g2 BB=A | G6 | %9
T:High Germany - Aggett
F:http://www.vwml.org/record/SBG/1/2/138
Z:Original Sibelius transcriptions by M. & S. Graebe
M:3/4
I:linebreak $
K:Bb
V:1 treble nm="P1"
V:1
 G2 | G2 d2 cB | AG =F3 G/A/ | d3 c B2 | A4 d2 | f2 d2 d=e | f2 d2 de | =d3 d cB | (AG A2) x2 | %9
T:High Germany - Fone
F:http://www.vwml.org/record/SBG/1/2/138
Z:Original Sibelius transcriptions by M. & S. Graebe
M:3/4
I:linebreak $
K:Bb
V:1 treble nm="P1"
V:1
 F | G g g/d/ | c/A/ F G/A/ | B/>c/ d (3c/B/A/ | G2 =F | G g f/d/ |$ c/A/ F G/A/ | %7
 B/>c/ d (3c/B/A/ | G3 (3:2:2G ^F/ | (3:2:2G ^F/ G (3A/G/ ^F/ | (3:2:2G ^F/ G (3:2:2=F F/ |$ %11
 G g (3a/g/^f/ | g2 b | g/>f/ f g | (3d/c/B/ F G/A/ | B/>c/ d (3c/B/A/ | G3 | %17






T:Highway Man - Gilbert
F:http://www.vwml.org/record/SBG/1/2/154
Z:Original Sibelius transcriptions by M. & S. Graebe
M:3/4
I:linebreak $
K:F
V:1 treble nm="P1"
V:1
 C2 | CF F2 AF | FD D3 F | EG GA BG | EC C3 B, | A,4 C2 | CF F2 AF |$ FD D3 F | EG GA (3cBG65/64 | %9
 EC C2 A | BB A2 F | BB A3 F | FA c2 BG | FE F4 | %14

